X:1
T:Title
%%score { 1 | ( 2 3 ) }
L:1/8
Q:1/4=100
M:6/8
K:Eb
V:1 treble nm="Grand Piano"
V:2 bass 
V:3 bass 
V:1
 BBB c2 c | B3 [CA]3 | [B,EG][A,DF][G,E] [B,DF]2 [DB] | B6 | cde edc | [EGB]3 [CF][C=EG][CFA] | %6
w: G.~W.~Elderkin * * * *||||||
 [B,DG]3 [A,DF]3 | [G,E]6 | [DF][EG][FA] [Fd]2 [_Gc] | [GB]3 .[Ge]3 | FGA [FB]2 [FA] | %11
w: |||||
 [FA]3 .[EG]3 | [GB][GB][AB] [Be]2 d | c3 .F3 | %14
w: |||
 FGA [DG]2 [DF][Q:1/4=99][Q:1/4=97][Q:1/4=96][Q:1/4=94][Q:1/4=93][Q:1/4=91][Q:1/4=90][Q:1/4=88][Q:1/4=87][Q:1/4=85][Q:1/4=84][Q:1/4=82][Q:1/4=81][Q:1/4=79][Q:1/4=78][Q:1/4=76] | %15
w: |
 E6 |] %16
w: |
V:2
 [E,G,E][E,G,E][E,G,E] [E,A,E]2 [E,A,E] | E6 | B,,B,,B,, B,,2 [B,,A,] | [E,G,E]6 | z3 .[CE]3 | %5
 E,3 A,G,F, | B,,3 B,,3 | E,6 | [B,,B,][B,,B,][B,,B,] [B,,B,]2 [B,,B,] | [E,B,]3 .[E,B,]3 | %10
 [A,B,D][G,B,E][F,B,F] [D,B,]2 [D,B,] | [E,B,]6 | [E,E][E,E][F,E][K:treble] [G,E]2 [G,B,E] | %13
 [A,CE]3 .[=A,CE]3 | [B,D][B,E][B,F][K:bass] [B,,B,]2 [B,,A,] | [E,G,]6 |] %16
V:3
 x6 | [E,G,]3 A,,3 | x6 | x6 | [A,E][A,B,E][A,CE] A,-[A,DF][A,EA] | x6 | x6 | x6 | x6 | x6 | x6 | %11
 x6 | x3[K:treble] x3 | x6 | x3[K:bass] x3 | x6 |] %16

